X:171
T:The Banks O' Newfoundland (Doerflinger)
M:C
L:1/8
Q:1/4=3D100
K:GMix
G2|\
E2C2 E2(Gc)|c3A B2c2|d2c2 (BG)A2|G6 G>G|
E2C>C E2G2|c3A B2(cd)|d2c2 (BG)A2|G6 (Gd)|
d3d B2G2|G>(c-c>B) G2(AB)|c<cB2 G2E2|D6 G>G|
E>EC>C E2G2|(c3A) B2c>c|d2c2 (BG)A2|G6 G2|
d3B (GA)B2|c3(c/B/) G3F|F2C2 F2G2|c6 B>c|
d2c2 B2c>c|A2D2 F2(Ac/)c/|B2G2 B2A2|G6||
